X:1
T:Title
%%score { 1 | 2 }
L:1/8
M:4/4
K:A
V:1 treble nm="Grand Piano"
V:2 bass 
V:1
 z4 z2[Q:1/4=100] [CE][B,D] | [A,C]2 [CE]2 [CA]2 [Ec][Ec] | B2 F2 A2 GF | %3
 [CE]2 [CA]2 [^DB]2 [Dc]2 |[M:3/4] B6 |[M:1/4] ED |[M:4/4] C2 [CE]2 [CA]2 [Ec][Ec] | B2 F2 A2 GF | %8
 E2 AA G2 B2 | [CA]6 z2 | [Ec]4 [Ec] [DB]3 | [Gd]4 [Gd] c3 | [^Dc]4 [DF]2 [Dc]2 |[M:3/4] B6 | %14
[M:1/4] ED |[M:4/4] C2 [CE]2 [CA]2 [Ec][Ec] | B2 F2 A2 GF | E2 AA G2 B2 |[M:8/4] [CA]8 z8 |] %19
V:2
 z4 z2 [A,,A,][A,,A,] | [A,,E,]2 [A,,A,]2 [A,,A,]2 [A,,A,][A,,A,] | %2
 [D,F,D]2 [D,A,D]2 [D,F,D]2 [D,A,D][D,A,D] | [A,,A,]2 [A,,A,]2 [F,A,]2 [B,,A,]2 |[M:3/4] [E,G,D]6 | %5
[M:1/4] [E,G,B,][E,G,B,] |[M:4/4] [A,,E,A,]2 [A,,A,]2 [A,,A,]2 [A,,A,][A,,A,] | %7
 [D,F,D]2 [D,A,D]2 [D,F,D]2 [D,A,D][D,A,D] | [E,A,C]2 [E,A,C][E,A,C] [E,B,D]2 [E,G,D]2 | %9
 [A,,A,]6 z2 | [A,,A,]4 [E,A,] [E,G,]3 | [E,B,]4 [E,B,] [A,A]3 | [B,,A,]4 [B,,A,]2 [B,,A,]2 | %13
[M:3/4] [E,G,D]6 |[M:1/4] [E,G,B,][E,G,B,] |[M:4/4] [A,,E,A,]2 [A,,A,]2 [A,,A,]2 [A,,A,][A,,A,] | %16
 [D,F,D]2 [D,A,D]2 [D,F,D]2 [D,A,D][D,A,D] | [E,A,C]2 [E,A,C][E,A,C] [E,B,D]2 [E,G,D]2 | %18
[M:8/4] [A,,A,]8 z8 |] %19

